X: 31576
T: Palm Bay
R: slip jig
M: 9/8
K: Aminor
|:c2A GEA- AGA|c2A GAc edB|c2A GEA- AGE|G3 GAB dcB:|
F3 FGA edc|~B3 ~B3 dcB|A2a- age a2e|ga^f- fed cAG|
F3 FGA edc|~B3 ~B3 dcB|A2a- age a2e|~g3 bag aed||

